proprietary/assets/icons/infrastructuur-en-transport/weg-met-dichte-slagboom.svg

<svg height="64" viewBox="0 0 64 64" width="64" xmlns="http://www.w3.org/2000/svg"><path d="m0 0h64v64h-64z" fill="none"/><path d="m14 17.4353v-7.4353-3.9848c.0562-.0209.2623-.0673.3641.2499l.7433 3.7349h32.8926c.5523 0 1-.4477 1-1v-4c0-.5523-.4477-1-1-1-12.3462 0-21.8092 0-34 0 0-.5523-.4477-1-1-1h-7c-.5523 0-1 .4477-1 1v18h9zm29-12.4353h4l-2 4h-4zm-8 0h4l-2 4h-4zm-8 0h4l-2 4h-4zm-8 0h4l-2 4h-4zm-9.5 4c-1.1046 0-2-.8954-2-2s.8954-2 2-2 2 .8954 2 2-.8954 2-2 2z"/><path d="m44.0862 12h-10.0862l.5 6h-4l.5-6h-10.0862l-15.9138 48h22l1-12h9l1 12h22zm-15.1696 25 1.0001-12h5.1666l1.0001 12z"/></svg>

<?xml version="1.0" encoding="utf-8"?>
<!-- Generator: Adobe Illustrator 19.1.0, SVG Export Plug-In . SVG Version: 6.00 Build 0)  -->
<svg version="1.2" baseProfile="tiny" xmlns="http://www.w3.org/2000/svg" xmlns:xlink="http://www.w3.org/1999/xlink" x="0px"
	 y="0px" width="64px" height="64px" viewBox="0 0 64 64" xml:space="preserve">
<g id="_x36_4px_Box">
	<rect fill="none" width="64" height="64"/>
</g>
<g id="Icon">
	<g>
		<path d="M14,17.4353V10V6.0152c0.0562-0.0209,0.2623-0.0673,0.3641,0.2499L15.1074,10H48c0.5523,0,1-0.4477,1-1V5
			c0-0.5523-0.4477-1-1-1C35.6538,4,26.1908,4,14,4c0-0.5523-0.4477-1-1-1H6C5.4477,3,5,3.4477,5,4v18h9V17.4353z M43,5h4l-2,4h-4
			L43,5z M35,5h4l-2,4h-4L35,5z M27,5h4l-2,4h-4L27,5z M19,5h4l-2,4h-4L19,5z M9.5,9c-1.1046,0-2-0.8954-2-2s0.8954-2,2-2
			s2,0.8954,2,2S10.6046,9,9.5,9z"/>
		<path d="M44.0862,12H34l0.5,6h-4l0.5-6H20.9138L5,60h22l1-12h9l1,12h22L44.0862,12z M28.9166,37l1.0001-12h5.1666l1.0001,12
			H28.9166z"/>
	</g>
</g>
</svg>
